src/assets/outline/Status.svg

<svg width="24" height="24" viewBox="0 0 24 24"  xmlns="http://www.w3.org/2000/svg">
<path d="M9.9898 22.5496C9.9398 22.5496 9.8898 22.5496 9.8398 22.5296C6.0098 21.7496 2.8998 18.9296 1.7398 15.1896C1.6198 14.7896 1.8398 14.3696 2.2298 14.2496C2.6298 14.1296 3.0498 14.3496 3.1698 14.7396C4.1698 17.9596 6.8398 20.3796 10.1398 21.0496C10.5498 21.1296 10.8098 21.5296 10.7198 21.9396C10.6498 22.2996 10.3298 22.5496 9.9898 22.5496Z" />
<path d="M21.9502 11.73C21.5702 11.73 21.2402 11.44 21.2002 11.06C20.7202 6.32 16.7602 2.75 12.0002 2.75C7.23022 2.75 3.28022 6.32 2.80022 11.05C2.76022 11.46 2.40022 11.77 1.98022 11.72C1.57022 11.68 1.27022 11.31 1.31022 10.9C1.87022 5.4 6.47022 1.25 12.0002 1.25C17.5402 1.25 22.1402 5.4 22.6902 10.9C22.7302 11.31 22.4302 11.68 22.0202 11.72C22.0002 11.73 21.9702 11.73 21.9502 11.73Z" />
<path d="M14.0101 22.5498C13.6601 22.5498 13.3501 22.3098 13.2801 21.9498C13.2001 21.5398 13.4601 21.1498 13.8601 21.0698C17.1401 20.3998 19.8101 17.9998 20.8201 14.7998C20.9401 14.3998 21.3701 14.1798 21.7601 14.3098C22.1601 14.4298 22.3701 14.8598 22.2501 15.2498C21.0701 18.9698 17.9701 21.7598 14.1601 22.5398C14.1101 22.5398 14.0601 22.5498 14.0101 22.5498Z" />
</svg>

<?xml version="1.0" encoding="UTF-8"?>
<svg width="24" height="24" viewBox="0 0 24 24" xmlns="http://www.w3.org/2000/svg">
 <path d="m9.9898 22.55c-0.05 0-0.1 0-0.15-0.02-3.83-0.78-6.94-3.6-8.1-7.34-0.12-0.4 0.1-0.82 0.49-0.94 0.4-0.12 0.82 0.1 0.94 0.49 1 3.22 3.67 5.64 6.97 6.31 0.41 0.08 0.67 0.48 0.58 0.89-0.07 0.36-0.39 0.61-0.73 0.61z"/>
 <path d="m21.95 11.73c-0.38 0-0.71-0.29-0.75-0.67-0.48-4.74-4.44-8.31-9.2-8.31-4.77 0-8.72 3.57-9.2 8.3-0.04 0.41-0.4 0.72-0.82 0.67-0.41-0.04-0.71-0.41-0.67-0.82 0.56-5.5 5.16-9.65 10.69-9.65 5.54 0 10.14 4.15 10.69 9.65 0.04 0.41-0.26 0.78-0.67 0.82-0.02 0.01-0.05 0.01-0.07 0.01z"/>
 <path d="m14.01 22.55c-0.35 0-0.66-0.24-0.73-0.6-0.08-0.41 0.18-0.8 0.58-0.88 3.28-0.67 5.95-3.07 6.96-6.27 0.12-0.4 0.55-0.62 0.94-0.49 0.4 0.12 0.61 0.55 0.49 0.94-1.18 3.72-4.28 6.51-8.09 7.29-0.05 0-0.1 0.01-0.15 0.01z"/>
</svg>
